status/24/onboard-panel.svg

<?xml version="1.0" encoding="UTF-8" standalone="no"?>
<svg
   xmlns:dc="http://purl.org/dc/elements/1.1/"
   xmlns:cc="http://creativecommons.org/ns#"
   xmlns:rdf="http://www.w3.org/1999/02/22-rdf-syntax-ns#"
   xmlns:svg="http://www.w3.org/2000/svg"
   xmlns="http://www.w3.org/2000/svg"
   xmlns:xlink="http://www.w3.org/1999/xlink"
   version="1.1"
   width="24"
   height="24"
   id="svg3942">
  <defs
     id="defs3944">
    <radialGradient
       cx="20.930695"
       cy="8.4497671"
       r="19.99999"
       fx="20.930695"
       fy="8.4497671"
       id="radialGradient3035"
       xlink:href="#linearGradient2867-449-88-871-390-598-476-591-434-148-57-177-641-289-620-227-114-444-680-744-4-8-69-5-4-8-426-2-9-1-4-965"
       gradientUnits="userSpaceOnUse"
       gradientTransform="matrix(1.165708e-8,1.4381477,-1.483354,-2.6496169e-8,28.53406,-5.4214298)" />
    <linearGradient
       x1="23.99999"
       y1="4.999989"
       x2="23.99999"
       y2="43"
       id="linearGradient3027"
       xlink:href="#linearGradient3924"
       gradientUnits="userSpaceOnUse"
       gradientTransform="matrix(0.62162164,0,0,0.56756755,1.0810837,2.3783866)" />
    <linearGradient
       x1="30.643436"
       y1="3.915791"
       x2="30.643436"
       y2="30.093096"
       id="linearGradient3024"
       xlink:href="#linearGradient4549"
       gradientUnits="userSpaceOnUse"
       gradientTransform="translate(-27.316332,0)" />
    <linearGradient
       id="linearGradient3702-501-757">
      <stop
         id="stop2895"
         style="stop-color:#181818;stop-opacity:0"
         offset="0" />
      <stop
         id="stop2897"
         style="stop-color:#181818;stop-opacity:1"
         offset="0.5" />
      <stop
         id="stop2899"
         style="stop-color:#181818;stop-opacity:0"
         offset="1" />
    </linearGradient>
    <linearGradient
       x1="25.058096"
       y1="47.027729"
       x2="25.058096"
       y2="39.999443"
       id="linearGradient3167"
       xlink:href="#linearGradient3702-501-757"
       gradientUnits="userSpaceOnUse" />
    <linearGradient
       id="linearGradient3688-464-309">
      <stop
         id="stop2889"
         style="stop-color:#181818;stop-opacity:1"
         offset="0" />
      <stop
         id="stop2891"
         style="stop-color:#181818;stop-opacity:0"
         offset="1" />
    </linearGradient>
    <radialGradient
       cx="4.9929786"
       cy="43.5"
       r="2.5"
       fx="4.9929786"
       fy="43.5"
       id="radialGradient3165"
       xlink:href="#linearGradient3688-464-309"
       gradientUnits="userSpaceOnUse"
       gradientTransform="matrix(2.003784,0,0,1.4,-20.01187,-104.4)" />
    <linearGradient
       id="linearGradient3688-166-749">
      <stop
         id="stop2883"
         style="stop-color:#181818;stop-opacity:1"
         offset="0" />
      <stop
         id="stop2885"
         style="stop-color:#181818;stop-opacity:0"
         offset="1" />
    </linearGradient>
    <radialGradient
       cx="4.9929786"
       cy="43.5"
       r="2.5"
       fx="4.9929786"
       fy="43.5"
       id="radialGradient3163"
       xlink:href="#linearGradient3688-166-749"
       gradientUnits="userSpaceOnUse"
       gradientTransform="matrix(2.003784,0,0,1.4,27.98813,-17.4)" />
    <linearGradient
       id="linearGradient2867-449-88-871-390-598-476-591-434-148-57-177-641-289-620-227-114-444-680-744-4-8-69-5-4-8-426-2-9-1-4-965">
      <stop
         id="stop4036"
         style="stop-color:#f4f4f4;stop-opacity:1"
         offset="0" />
      <stop
         id="stop4040"
         style="stop-color:#d0d0d0;stop-opacity:1"
         offset="1" />
    </linearGradient>
    <linearGradient
       id="linearGradient3924">
      <stop
         id="stop3926"
         style="stop-color:#ffffff;stop-opacity:1"
         offset="0" />
      <stop
         id="stop3928"
         style="stop-color:#ffffff;stop-opacity:0.23529412"
         offset="0.06316455" />
      <stop
         id="stop3930"
         style="stop-color:#ffffff;stop-opacity:0.15686275"
         offset="0.95056331" />
      <stop
         id="stop3932"
         style="stop-color:#ffffff;stop-opacity:0.39215687"
         offset="1" />
    </linearGradient>
    <linearGradient
       id="linearGradient4549">
      <stop
         id="stop4551"
         style="stop-color:#000000;stop-opacity:0.27205881"
         offset="0" />
      <stop
         id="stop4553"
         style="stop-color:#000000;stop-opacity:0.36764705"
         offset="1" />
    </linearGradient>
    <linearGradient
       x1="23.99999"
       y1="4.999989"
       x2="23.99999"
       y2="43"
       id="linearGradient3075"
       xlink:href="#linearGradient3924"
       gradientUnits="userSpaceOnUse"
       gradientTransform="matrix(0.62162164,0,0,0.56756755,-52.647729,-11.765681)" />
    <linearGradient
       x1="30.643436"
       y1="3.915791"
       x2="30.643436"
       y2="30.093096"
       id="linearGradient3082"
       xlink:href="#linearGradient4549"
       gradientUnits="userSpaceOnUse"
       gradientTransform="translate(-81.045145,-14.144068)" />
    <radialGradient
       cx="20.930695"
       cy="8.4497671"
       r="19.99999"
       fx="20.930695"
       fy="8.4497671"
       id="radialGradient3086"
       xlink:href="#linearGradient2867-449-88-871-390-598-476-591-434-148-57-177-641-289-620-227-114-444-680-744-4-8-69-5-4-8-426-2-9-1-4-965"
       gradientUnits="userSpaceOnUse"
       gradientTransform="matrix(1.165708e-8,1.4381477,-1.483354,-2.6496169e-8,-25.194753,-19.565498)" />
  </defs>
  <metadata
     id="metadata3947">
    <rdf:RDF>
      <cc:Work
         rdf:about="">
        <dc:format>image/svg+xml</dc:format>
        <dc:type
           rdf:resource="http://purl.org/dc/dcmitype/StillImage" />
        <dc:title />
      </cc:Work>
    </rdf:RDF>
  </metadata>
  <path
     style="color:#000000;fill:#ffffff;fill-opacity:1;fill-rule:nonzero;stroke:none;stroke-width:1;marker:none;visibility:visible;display:inline;overflow:visible;enable-background:accumulate"
     d="M 6.28125 4 C 5.0149643 4 4 5.0149643 4 6.28125 L 4 17.71875 C 4 18.985035 5.0149643 20 6.28125 20 L 17.71875 20 C 18.985035 20 20 18.985035 20 17.71875 L 20 6.28125 C 20 5.0149643 18.985035 4 17.71875 4 L 6.28125 4 z M 6.5 5 L 17.5 5 C 18.331 5 19 5.669 19 6.5 L 19 16.5 C 19 17.331 18.331 18 17.5 18 L 6.5 18 C 5.669 18 5 17.331 5 16.5 L 5 6.5 C 5 5.669 5.669 5 6.5 5 z M 9.5 6.96875 C 8.7223104 6.9687549 8.100332 7.1787551 7.65625 7.625 C 7.2143323 8.0712535 6.9999997 8.7136506 7 9.5 C 6.9999997 10.284188 7.2143323 10.897501 7.65625 11.34375 C 8.100332 11.79 8.7223104 12 9.5 12 C 10.27985 12 10.901829 11.79 11.34375 11.34375 C 11.785662 10.897501 11.999995 10.284188 12 9.5 C 11.999995 8.7136506 11.785662 8.0712535 11.34375 7.625 C 10.901829 7.1787551 10.27985 6.9687549 9.5 6.96875 z M 9.5 7.875 C 9.8834249 7.875004 10.164869 7.99964 10.375 8.28125 C 10.585123 8.5628672 10.687496 8.9887655 10.6875 9.5 C 10.687496 10.009073 10.585123 10.374638 10.375 10.65625 C 10.164869 10.937865 9.8834249 11.093751 9.5 11.09375 C 9.1187357 11.093751 8.8038751 10.937865 8.59375 10.65625 C 8.383621 10.374638 8.2812484 10.009073 8.28125 9.5 C 8.2812484 8.9887655 8.383621 8.5628672 8.59375 8.28125 C 8.8038751 7.99964 9.1187357 7.875004 9.5 7.875 z M 13.0625 11.15625 L 13.0625 16 L 15.15625 16 C 15.801792 16 16.277472 15.885874 16.59375 15.65625 C 16.91002 15.426627 17.062495 15.061663 17.0625 14.59375 C 17.062495 14.288309 16.991051 14.053879 16.84375 13.84375 C 16.69644 13.633625 16.487362 13.484238 16.21875 13.40625 C 16.428873 13.326101 16.577017 13.195889 16.6875 13.03125 C 16.797975 12.864451 16.874996 12.673626 16.875 12.4375 C 16.874996 11.989088 16.709522 11.672383 16.40625 11.46875 C 16.105136 11.265126 15.611204 11.156255 14.9375 11.15625 L 13.0625 11.15625 z M 14.3125 12 L 15 12 C 15.197127 12.000004 15.366933 12.036187 15.46875 12.125 C 15.570561 12.211654 15.593747 12.333202 15.59375 12.5 C 15.593747 12.668972 15.570561 12.819603 15.46875 12.90625 C 15.366933 12.992903 15.197127 13.031253 15 13.03125 L 14.3125 13.03125 L 14.3125 12 z M 14.3125 13.875 L 15.0625 13.875 C 15.31595 13.875002 15.499354 13.925105 15.625 14.03125 C 15.75064 14.135232 15.812497 14.289874 15.8125 14.5 C 15.812497 14.714461 15.752806 14.893854 15.625 15 C 15.499354 15.106148 15.313783 15.156251 15.0625 15.15625 L 14.3125 15.15625 L 14.3125 13.875 z "
     id="rect2989" />
</svg>

<svg xmlns="http://www.w3.org/2000/svg" width="24" height="24"><path d="M6.28 4A2.273 2.273 0 0 0 4 6.28v11.44A2.273 2.273 0 0 0 6.28 20h11.44A2.273 2.273 0 0 0 20 17.72V6.28A2.273 2.273 0 0 0 17.72 4H6.28zm.22 1h11c.83 0 1.5.67 1.5 1.5v10c0 .83-.67 1.5-1.5 1.5h-11c-.83 0-1.5-.67-1.5-1.5v-10C5 5.67 5.67 5 6.5 5zm3 1.97c-.778 0-1.4.21-1.844.655C7.214 8.07 7 8.715 7 9.5c0 .784.214 1.398.656 1.844C8.1 11.79 8.722 12 9.5 12c.78 0 1.402-.21 1.844-.656.442-.446.656-1.06.656-1.844 0-.786-.214-1.43-.656-1.875-.442-.446-1.064-.656-1.844-.656zm0 .905c.383 0 .665.125.875.406.21.29.312.71.313 1.22 0 .51-.103.88-.313 1.16a1.03 1.03 0 0 1-.875.44 1.09 1.09 0 0 1-.906-.44c-.21-.28-.313-.644-.313-1.153 0-.51.11-.936.32-1.22.21-.28.527-.404.908-.404zm3.563 3.28V16h2.093c.646 0 1.12-.114 1.438-.344.316-.23.468-.594.468-1.062 0-.306-.07-.54-.218-.75a1.124 1.124 0 0 0-.625-.438.96.96 0 0 0 .46-.375 1.03 1.03 0 0 0 .187-.59c0-.45-.165-.76-.47-.97-.3-.2-.794-.31-1.468-.31h-1.87zm1.25.845H15c.197 0 .367.036.47.125.1.087.124.208.124.375 0 .17-.023.32-.125.406-.11.087-.28.125-.47.125h-.69V12zm0 1.875h.75c.253 0 .436.05.562.156.126.11.187.26.188.47 0 .22-.06.4-.188.5-.126.11-.31.16-.563.16h-.75v-1.28z" color="#000" fill="#fff" overflow="visible"/></svg>
